symbolic/64x64/apps/grub-customizer.svg

<svg xmlns="http://www.w3.org/2000/svg" width="64" height="64" version="1">
 <path style="opacity:0.2" d="m 5.1337626,23.486813 -0.2148342,0.37109 C 4.6034969,24.416488 4.7410872,25.189547 5.22752,25.607856 L 9.6648002,29.50175 C 9.709975,28.888407 9.7736853,28.281383 9.8640128,27.67758 L 5.227538,23.60769 c -0.039199,-0.036 -0.059198,-0.084 -0.093797,-0.121997 z m 53.7325494,0 c -0.03458,0.038 -0.05458,0.0874 -0.09374,0.121097 l -4.636675,4.07029 c 0.09026,0.603803 0.154016,1.210827 0.199215,1.82417 l 4.43748,-3.894494 c 0.486367,-0.418309 0.624003,-1.191368 0.308592,-1.749953 l -0.213994,-0.37199 z m -49.2206713,8.51577 c -0.016659,0.332251 -0.042967,0.661682 -0.042967,0.999973 0,0.507426 0.026069,1.005173 0.062498,1.499959 L 9.8643848,34.32674 C 9.7495879,33.560761 9.6847897,32.786782 9.6455907,32.002803 Z m 44.7087933,0 c -0.03932,0.783859 -0.104138,1.557998 -0.218755,2.324137 l 0.199215,0.175775 c 0.03644,-0.494786 0.0625,-0.992533 0.0625,-1.499959 0,-0.338291 -0.0263,-0.667722 -0.04296,-0.999973 z m -49.2206714,8.51577 c -0.3945894,0.433988 -0.5047864,1.11397 -0.2147942,1.627956 l 5.6014486,9.710738 c 0.324771,0.550785 1.055632,0.821698 1.660115,0.613263 l 5.820043,-1.969947 c 1.748773,1.399903 3.742699,2.541732 5.863042,3.370909 l 1.179648,5.992039 C 25.163062,60.490694 25.760046,60.9913 26.398708,61 l 11.202898,0 c 0.638643,-0.008 1.235687,-0.509306 1.355443,-1.136689 l 1.179648,-5.992039 c 2.117943,-0.829977 4.111889,-1.971946 5.859842,-3.371908 l 5.820243,1.968706 c 0.604464,0.208435 1.335344,-0.0624 1.660115,-0.613263 l 5.601449,-9.710738 c 0.290012,-0.513586 0.179795,-1.195108 -0.214834,-1.628856 l -5.386655,9.339548 c -0.324771,0.550865 -1.055651,0.821698 -1.660115,0.613263 l -5.821843,-1.969946 c -1.748772,1.399902 -3.742699,2.537731 -5.863041,3.367109 l -1.179649,5.995838 c -0.117996,0.625983 -0.71598,1.127969 -1.353963,1.135969 l -11.202898,0 c -0.638642,-0.0086 -1.235646,-0.509306 -1.355443,-1.136689 L 23.861937,51.864467 C 21.739994,51.034489 19.746848,49.89652 17.998095,48.496558 l -5.820243,1.967946 c -0.604383,0.209995 -1.335164,-0.062 -1.659955,-0.611983 L 5.1312426,40.512773 Z"/>
 <path style="fill:#78ac3d" d="m 26.268392,4.002566 c -0.593604,0.064598 -1.11647,0.5502851 -1.224967,1.1374493 l -1.181188,5.9934377 c -2.120543,0.829298 -4.113489,1.968707 -5.862242,3.368709 l -5.817843,-1.968746 c -0.604783,-0.208395 -1.337964,0.0616 -1.662755,0.612583 l -5.5998487,9.712138 c -0.3154314,0.558585 -0.1801951,1.331624 0.3062318,1.749933 l 4.6372748,4.06849 c -0.1631956,1.09091 -0.2624929,2.188541 -0.2624929,3.32491 0,1.136409 0.099197,2.23394 0.2624929,3.32491 l -4.6372748,4.06869 c -0.4863669,0.418309 -0.6216632,1.191348 -0.3062318,1.749933 l 5.5998487,9.712138 c 0.324771,0.550785 1.057952,0.820898 1.662435,0.612463 l 5.818443,-1.968667 c 1.748773,1.399903 3.741699,2.539332 5.862242,3.36871 l 1.181188,5.993438 c 0.119797,0.627383 0.717561,1.128749 1.356203,1.137449 l 11.199498,0 c 0.638643,-0.008 1.236447,-0.510066 1.356183,-1.137449 l 1.181208,-5.993438 c 2.120543,-0.829298 4.113489,-1.968727 5.862242,-3.36871 l 5.818443,1.968667 c 0.604464,0.208435 1.337664,-0.0616 1.662435,-0.612463 l 5.599849,-9.712138 c 0.315411,-0.558585 0.180195,-1.331624 -0.306232,-1.749933 l -4.637275,-4.06869 c 0.163196,-1.09091 0.262473,-2.188341 0.262473,-3.32491 0,-1.136409 -0.0994,-2.23394 -0.262473,-3.32491 l 4.637275,-4.06849 c 0.486367,-0.418309 0.621643,-1.191348 0.306232,-1.749933 l -5.599849,-9.712138 c -0.323991,-0.551585 -1.057971,-0.821778 -1.661955,-0.613383 l -5.818443,1.968666 C 44.249566,13.10032 42.25762,11.960951 40.137677,11.131573 L 38.955709,5.1381353 C 38.835713,4.5107522 38.237729,4.0093658 37.599746,4.000766 l -11.199498,0 c -0.0438,-0.00102 -0.0876,-0.00102 -0.131196,0 z"/>
 <path style="opacity:0.2" d="m 32.000237,21.000648 c 6.627221,0 11.999676,5.372455 11.999676,11.999676 C 43.999913,39.627545 38.627458,45 32.000237,45 25.373016,45 20.000561,39.627545 20.000561,33.000324 c 0,-6.627221 5.372455,-11.999676 11.999676,-11.999676 z"/>
 <path style="fill:#ffffff" d="m 32.000237,20.001334 c 6.627221,0 11.999676,5.372455 11.999676,11.999676 0,6.627221 -5.372455,11.999676 -11.999676,11.999676 -6.627221,0 -11.999676,-5.372455 -11.999676,-11.999676 0,-6.627221 5.372455,-11.999676 11.999676,-11.999676 z"/>
 <path style="opacity:0.2" d="m 32.000237,14.001096 c -9.928332,0 -17.999514,8.071182 -17.999514,17.999514 0,9.928332 8.071182,17.999514 17.999514,17.999514 9.928332,0 17.999514,-8.071182 17.999514,-17.999514 0,-9.928332 -8.071182,-17.999514 -17.999514,-17.999514 z m 0,2.117543 c 8.783963,0 15.881971,7.098008 15.881971,15.881971 0,8.783963 -7.098008,15.881971 -15.881971,15.881971 -8.783763,0 -15.881971,-7.097808 -15.881971,-15.881571 0,-8.783763 7.098208,-15.881971 15.881971,-15.881971 z"/>
 <path style="fill:#ffee57" d="m 30.152287,14.096093 c -9.062155,0.928035 -16.150764,8.599768 -16.150764,17.904317 0,9.928332 8.071182,17.999514 17.999514,17.999514 1.48952,0 2.928921,-0.201515 4.313684,-0.543865 0.128156,-0.296292 0.35425,-0.799739 0.256473,-1.195368 -0.0903,-0.36533 -0.38893,-0.676422 -0.723821,-0.866417 -1.232446,0.305992 -2.516732,0.488107 -3.845496,0.488107 -8.783763,0 -15.881971,-7.098208 -15.881971,-15.881971 0,-8.374974 6.456626,-15.19999 14.669604,-15.819373 0.317631,-0.343571 0.438328,-0.713521 0.37903,-1.197808 -0.0614,-0.498586 -0.444688,-0.768999 -1.015373,-0.887156 z"/>
 <path style="fill:#ffffff;opacity:0.2" d="M 26.269531 4 L 26.267578 4.0019531 C 25.673974 4.0665511 25.151466 4.5534608 25.042969 5.140625 L 23.861328 11.132812 C 21.740785 11.96211 19.748753 13.101951 18 14.501953 L 12.181641 12.533203 C 11.576858 12.324808 10.844322 12.595501 10.519531 13.146484 L 4.9199219 22.857422 C 4.7181344 23.214759 4.7183426 23.653257 4.859375 24.037109 C 4.881923 23.977899 4.8885637 23.912953 4.9199219 23.857422 L 10.519531 14.144531 C 10.844322 13.593548 11.576858 13.324808 12.181641 13.533203 L 18 15.501953 C 19.748753 14.101951 21.740785 12.96211 23.861328 12.132812 L 25.042969 6.1386719 C 25.151466 5.5515077 25.673974 5.0665511 26.267578 5.0019531 L 26.269531 5 C 26.313127 4.99898 26.356591 4.99898 26.400391 5 L 37.599609 5 C 38.237592 5.0085998 38.835082 5.5093356 38.955078 6.1367188 L 40.136719 12.130859 C 42.256662 12.960237 44.250047 14.099038 46 15.5 L 51.818359 13.53125 C 52.422343 13.322855 53.156478 13.592946 53.480469 14.144531 L 59.080078 23.857422 C 59.11117 23.912484 59.118197 23.976472 59.140625 24.035156 C 59.280725 23.651837 59.281442 23.214033 59.080078 22.857422 L 53.480469 13.146484 C 53.156478 12.594899 52.422343 12.324808 51.818359 12.533203 L 46 14.501953 C 44.250047 13.100991 42.256662 11.960237 40.136719 11.130859 L 38.955078 5.1386719 C 38.835082 4.5112888 38.237592 4.0085998 37.599609 4 L 26.400391 4 C 26.356591 3.99898 26.313127 3.99898 26.269531 4 z M 9.7558594 29.582031 C 9.6650192 30.377116 9.5996094 31.178361 9.5996094 32.001953 C 9.5996094 32.171101 9.6168142 32.334421 9.6210938 32.501953 C 9.6455325 31.543455 9.7243098 30.604761 9.8632812 29.675781 L 9.7558594 29.582031 z M 54.242188 29.583984 L 54.136719 29.675781 C 54.275586 30.604812 54.352495 31.54345 54.376953 32.501953 C 54.381235 32.334408 54.398438 32.171125 54.398438 32.001953 C 54.398438 31.178962 54.332882 30.378469 54.242188 29.583984 z M 54.242188 35.417969 C 54.207644 35.720515 54.181728 36.025302 54.136719 36.326172 L 58.773438 40.394531 C 58.949321 40.545784 59.061277 40.749695 59.140625 40.966797 C 59.345339 40.430267 59.211728 39.771445 58.773438 39.394531 L 54.242188 35.417969 z M 9.7558594 35.419922 L 5.2265625 39.394531 C 4.7887348 39.771093 4.6555165 40.428576 4.859375 40.964844 C 4.9388036 40.748663 5.0513338 40.54524 5.2265625 40.394531 L 9.8632812 36.326172 C 9.8183353 36.025891 9.7903614 35.721871 9.7558594 35.419922 z"/>
</svg>

<svg xmlns="http://www.w3.org/2000/svg" width="64" height="64" version="1"><path style="opacity:.2" d="m5.134 23.487-.215.37c-.316.56-.178 1.333.309 1.75l4.437 3.895c.045-.614.109-1.22.199-1.824l-4.636-4.07c-.04-.036-.06-.084-.094-.122zm53.732 0c-.034.038-.054.087-.093.12l-4.637 4.071c.09.604.154 1.211.2 1.824l4.437-3.894c.486-.418.624-1.191.308-1.75l-.214-.372zm-49.22 8.516c-.017.332-.043.661-.043 1 0 .507.026 1.005.062 1.5l.2-.176c-.115-.766-.18-1.54-.22-2.324zm44.708 0a23.72 23.72 0 0 1-.218 2.324l.199.175c.036-.494.062-.992.062-1.5 0-.338-.026-.667-.043-1zm-49.22 8.515c-.395.434-.505 1.114-.215 1.628l5.601 9.711c.325.55 1.056.822 1.66.613L18 50.5a22.548 22.548 0 0 0 5.864 3.371l1.18 5.992c.12.628.716 1.128 1.355 1.137h11.203c.638-.008 1.235-.51 1.355-1.137l1.18-5.992a22.58 22.58 0 0 0 5.86-3.372l5.82 1.97c.604.208 1.335-.063 1.66-.614l5.601-9.71c.29-.515.18-1.196-.214-1.63l-5.387 9.34c-.325.55-1.056.821-1.66.613l-5.822-1.97a22.542 22.542 0 0 1-5.863 3.367l-1.18 5.996c-.118.626-.716 1.128-1.354 1.136H26.395a1.443 1.443 0 0 1-1.355-1.137l-1.178-5.996a22.538 22.538 0 0 1-5.864-3.367l-5.82 1.968c-.605.21-1.335-.062-1.66-.612l-5.387-9.34z"/><path style="fill:#78ac3d" d="M26.268 4.003a1.44 1.44 0 0 0-1.225 1.137l-1.18 5.993A22.534 22.534 0 0 0 18 14.503l-5.818-1.97c-.605-.208-1.338.062-1.663.613l-5.6 9.712c-.315.559-.18 1.332.307 1.75l4.637 4.069A22.331 22.331 0 0 0 9.601 32c0 1.137.099 2.234.262 3.325l-4.637 4.07c-.487.417-.622 1.19-.306 1.749l5.6 9.712c.324.55 1.057.821 1.662.613L18 49.5a22.54 22.54 0 0 0 5.863 3.37l1.18 5.993c.12.627.718 1.129 1.357 1.138h11.2c.638-.008 1.236-.51 1.356-1.138l1.18-5.993A22.534 22.534 0 0 0 46 49.5l5.818 1.97c.605.208 1.338-.062 1.663-.613l5.6-9.712c.315-.559.18-1.332-.306-1.75l-4.638-4.069a22.33 22.33 0 0 0 .263-3.325c0-1.136-.1-2.233-.263-3.324l4.638-4.069c.486-.418.621-1.191.306-1.75l-5.6-9.712c-.324-.552-1.058-.822-1.662-.613L46 14.5a22.54 22.54 0 0 0-5.862-3.37l-1.182-5.993c-.12-.627-.718-1.129-1.356-1.137H26.4a2.813 2.813 0 0 0-.13 0z"/><path style="opacity:.2" d="M32 21c6.627 0 12 5.373 12 12 0 6.628-5.373 12-12 12s-12-5.372-12-12c0-6.627 5.373-12 12-12z"/><path style="fill:#fff" d="M32 20.001c6.627 0 12 5.373 12 12s-5.373 12-12 12-12-5.373-12-12 5.373-12 12-12z"/><path style="opacity:.2" d="M32 14.001c-9.928 0-18 8.071-18 18 0 9.928 8.072 18 18 18 9.929 0 18-8.072 18-18 0-9.929-8.071-18-18-18zm0 2.118c8.784 0 15.882 7.098 15.882 15.882 0 8.784-7.098 15.882-15.882 15.882-8.784 0-15.882-7.098-15.882-15.882 0-8.784 7.098-15.882 15.882-15.882z"/><path style="fill:#ffee57" d="M30.152 14.096c-9.062.928-16.15 8.6-16.15 17.904 0 9.929 8.07 18 17.999 18 1.49 0 2.929-.202 4.314-.544.128-.296.354-.8.256-1.195-.09-.366-.389-.677-.724-.867a15.923 15.923 0 0 1-3.845.488c-8.784 0-15.882-7.098-15.882-15.882 0-8.375 6.457-15.2 14.67-15.819.317-.344.438-.713.379-1.198-.062-.498-.445-.769-1.016-.887z"/><path style="fill:#fff;opacity:.2" d="m26.27 4-.002.002a1.44 1.44 0 0 0-1.225 1.139l-1.182 5.992A22.53 22.53 0 0 0 18 14.502l-5.818-1.969c-.605-.208-1.338.063-1.662.613l-5.6 9.711c-.202.358-.202.796-.06 1.18.022-.06.029-.124.06-.18l5.6-9.712c.324-.551 1.057-.82 1.662-.612L18 15.502a22.53 22.53 0 0 1 5.861-3.37l1.182-5.993a1.439 1.439 0 0 1 1.225-1.137L26.27 5H37.6c.638.009 1.235.51 1.355 1.137l1.182 5.994c2.12.83 4.113 1.968 5.863 3.369l5.818-1.969c.604-.208 1.338.062 1.662.614l5.6 9.712c.031.055.038.12.06.178.14-.383.141-.821-.06-1.178l-5.6-9.71c-.324-.552-1.058-.822-1.662-.614L46 14.502a22.552 22.552 0 0 0-5.863-3.371l-1.182-5.992c-.12-.628-.717-1.13-1.355-1.139H26.4a2.798 2.798 0 0 0-.13 0zM9.756 29.582a21.21 21.21 0 0 0-.156 2.42c0 .17.017.332.021.5.025-.959.103-1.897.242-2.826l-.107-.094zm44.486.002-.105.092c.139.929.215 1.867.24 2.826.004-.168.021-.33.021-.5 0-.823-.065-1.624-.156-2.418zm0 5.834c-.034.303-.06.607-.105.908l4.636 4.069c.176.15.288.355.368.572.204-.537.07-1.196-.368-1.572l-4.53-3.977zm-44.486.002-4.53 3.975c-.437.376-.57 1.034-.367 1.57.08-.216.192-.42.368-.57l4.636-4.069c-.045-.3-.073-.604-.107-.906z"/></svg>
